X:31
T:Planxty Connor
C:O'Carolan
R:Planxty
M:6/8
Q:1/4=96
L:1/8
K:G
|: ded cBA | B2 c d2 e | f2 d g2 e | f2 d g2 e |
fga Bcd | efd cBA | Bcd ecA | d3 d3 :|
|: fgf fga | b3 b3 | efe efg | a3 a3 |
agf gab | a^ga  A2 A | Bcd ecA | d3 d3 :|

%
